X:1
T:Johann Gottfried Schicht 1753-1823
T:Veni Sancte Spiritus
%%score [ 1 2 3 4 ]
L:1/8
Q:1/4=120
M:4/4
K:C
V:1 treble nm="S."
V:2 treble nm="A."
V:3 treble-8 nm="T."
V:4 bass nm="B."
V:1
!mf!"^Un poco lento" e4"^," d4 | c4- cB AG | (A2 B2 c2) d2 | e3 e d2 z2 |!f! f4 e2 z2 | %5
w: Ve- ni,|ve- * * ni *|San- * * cte|Spi- ri- tus,|ve- ni,|
!mf! d4 c2 z2 |[M:4/4]!mp!!<(! (A2 B2 c2) d2!<)! |!mf! e4- ed!>(! cd |!mp! c2!>)! z2 z4 | z8 | z8 | %11
w: ve- ni,|San * * cte|Spi * * ri *|tus,-|||
 z2 B2- BGAB | (c2 e4) d2 | cBAB cd e^f |!f! g3 d d2!p! fe | e4 e2 e2 | (e3 c) AB"^cresc" c^c | %17
w: re * * ple tu-|o * rum|cor * * * da * fi *|de- li- um et *|ti- i a|mo * ris * in *|
 d6 d2 |!f! d4 ^d3 d | ^de e2 z2 ^f2 | ^fg g2 z2!p! d2 | d6 ^d2 | (^d2 e2) e2 d2 | (^d2 e2) e2 z2 | %24
w: e- is|i- gnem ac-|ce- * de, ac-|ce- * de, in|e- is|i- * gnem ac-|ce- * de,|
 z4 z2!f! e2 | d4 ^f4 | (g2 f2) e2 ^d2 | (^d2 e2)"^," c2 A2 |!>(! G4- G^FBA!>)! | G2 z2 z4 | z8 | %31
w: in|e- is|i- * gnem ac-|ce- * de, ac-|ce * * * *|de,||
!f!!>(! (f6!>)! d2) |!mf! B4 z4 |"^mezza voce"!p! e4"^," d4 | c4- cB AG |!mp! (A2 B2 c2) d2 | %36
w: ve *|ni!|Ve- ni,|ve * * ni *|San * * cte|
 e3 e d2 z2 |!mf! f4 e2 z2 |!f! a4 g2 z2 |!mf!!<(! c6 d2!<)! |!f! e4-!>(! ed cd!>)! | %41
w: Spi- ri- tus,|ve- ni,|ve- ni,|San- cte|Spi * * ri *|
!mf! c2!p! c2- cB AG | G4 F4 |"^rit" (F4 E2) E2 | !fermata!E8 ||[M:3/4]"^Con più moto" z6 | %46
w: tus, San * * cte, *|San- cte|Spi * ri-|tus||
[M:3/4]!f! ^G2 GGGG | B2 ^G2 z B | B2 B2 B2 | d2 B2 z2 | z6 |"^Solo"!mp! A2 c2 f2 | (f2 ed) c_B | %53
w: Qui per di- ver- si-|ta- tem lin-|gua- rum cun-|cta- rum||gen- tes in|u * * ni- *|
 (A2 c2) f2 | (f2 ed) c_B | (A2 _BA) Bc |!>(! !wedge!d2!>)! !wedge!c2 z2 |!p! _B2 B2 B2 | %58
w: ta * te|fi- * * de- i|con * * \-gre *|ga- sti,|in u- ni-|
!<(! !>!_B4 A2!<)! |!f! d>d d2 d2- | dfed c_B |!>(! (A4 G2)!>)! | F4 z2 | z6 | %64
w: ta- te|fi- de- i con-|* * * * gre *|ga *|sti,||
!f!"^Tutti" A2 AA AA | c2 A2 z c | c2 c2 c2 | _e2 c2 z2 | z6 |"^Solo" _B2 _d2 _g2 | %70
w: qui per di- ver- si-|ta- tem lin-|gua- rum cun-|cta- rum||gen- tes in|
 (_g2 f_e) _d_c | (_B2 _d2) _g2 | (_g2 f_e) _d_c | (_B2 _cB) c_d | !wedge!_e2 !wedge!_d2 z2 | %75
w: u- * * ni *|ta- * te|fi- * * de- i|con- * * gre- *|ga- sti,|
!p! _c2"^cresc" c2 c2 | _c4 _B2 | !>!_e4 e2 |!f! _e>d d2 d2- | (d2 c2) c2 | %80
w: gen- tes in|u- ni-|ta- te|fi- de- i con-|* * gre|
 !wedge!c2 !wedge!B2 z2 |!f!"^Tutti" G2 G2 G2 | (G2 F_E) DC | (B,2 D2) G2 | G2 F_E DC |!>(! G6- | %86
w: ga- sti|gen- tes in|u * * ni *|ta * te|fi- de- i con- gre-|ga-|
 G6!>)! |!p! G6 | !fermata!G6 ||[M:4/4] x8 | x8 |[M:4/4] x8 | x8 | x8 | x8 | x8 | x8 | x8 | x8 | %99
w: ||sti.|||||||||||
 x8 | x8 | x8 | x8 | x8 | x8 | x8 | z8 | z8 |!f! G4 A2 B2 | c6 c2- | c2 BA B2 cd | e3 d cBAG | %112
w: |||||||||Hal- le- lu-|ja, hal-|* * * le * lu-|ja, * * * * *|
 ^F4 G2 AB | c6 dc | B6 d2 | G2 e2 f2 g2- | g2 fe decd | G2 AB c2 de | fcfe dcBA | G2 gf ed c_B | %120
w: * hal * *|le- * *|* lu-|ja, Hal- le- lu-||||* * * le * lu *|
 A2 z2 z4 | z8 | z8 | z8 | z8 | A4 B2 c2 | d6 d2- | d2 cB c2 de | f3 e dcBA | ^G4 A2 Bc | d6 ed | %131
w: ja,|||||hal- le- lu-|ja, hal-|* * * le- lu *|ja * * * * *|* hal * *|le- lu *|
 ^c6 c2 | de f4 ed | ^c2 BA B2 c2 | d6 ef | g3 f ed^cd | e2 A4 d2- | d2 ed ^c4 | d2 A_B c4- | %139
w: ja, hal-|le * * * *|* * * * lu-|ja * *|||||
 c2 _BA BGcB | A2 z2 z4 | z2 e2 f2 g2 | c2 z2 z4 | z8 | z2 gf ed c_B | A2 fe dc BA | G2 ed cBAG | %147
w: ||hal- le- lu-|ja,||Hal * le * lu *|ja, * * * * * *||
 F2 dc BA GF | E2 z2 z2 _B2 | AFd^c dAB=c | BGe^d eBc=d | cAfe dB gf | e2 z2 z2 e2 | %153
w: |* hal-|le * * * * * * *||* * * * * * lu- *|ja, hal-|
 !wedge!d4 !wedge!d4 | d2!p! G2 A2 B2 | c8- | c2!f! ^c2 d2 e2 | f2 f2 f2 f2 | !fermata!f4 z2 e2 | %159
w: le- lu-|ja. Hal- le- lu-|ja,|* Hal- le- lu-|ja, Hal- le- lu-|ja, hal-|
 d4 d4 | e2 z2 z4 | z8 | z8 | z2!p! G2 A2 B2 | c2!f! c2 c2 c2 | c2 BA BcdB | e8- | e2 dc defd | %168
w: le- lu-|ja.|||Hal- le- lu-|ja, hal- le- lu-|ja, * * * * * *|||
 g6 ag | f6 gf | e6 dc | B4 c4 | c4 B4 | c4 z2 e2 | d4 f4 | f4 e4 | d4 g4 | e2 d2 e2 d2 | e4 z4 | %179
w: |||* hal-|le- lu-|ja, hal-|le- lu-|ja, hal-|le- lu-|ja, hal- le- lu-|ja,|
 e4 e3 e | !fermata!e8 |] %181
w: Hal- le- lu-|ja!|
V:2
!mf! G4"^," F4 | E4 G4 | (F4 G2) G2 | G3 G G2 z2 |!f! F4 G2 z2 |!mf! G4 G2 z2 | %6
w: Ve- ni,|ve- ni|San- * cte|Spi- ri- tus,|ve- ni,|ve- ni,|
[M:4/4]!mp!!<(! (C2 F2 E2) ^F2!<)! |!mf! G4!>(! F4 |!mp! E2 z2!>)! z4 | z8 | z2 E2- ED"^cresc"E^F | %11
w: San * * cte|Spi- ri-|tus,||re * * ple tu-|
 G4 F4 | E8- | E4 E2 A2 |!f! G3 G G2 z2 |!p! z2 ^G2 A2 BB | BA A2 z4 | z2"^cresc" ^F2 G2 A2 | %18
w: o- rum|cor-|* da fi-|de- li- um|et tu- i a-|mo * ris|in e- is|
!f! G4 A3 A | AG G2 z2 A2 | AG G2 z4 | z2!p! F2 F2 F2 | (F2 E2) E2 F2 | (F2 E2)"^," E2!f! E2 | %24
w: i- gnem ac-|ce- * de, ac-|ce- * de,|in e- is|i- * gnem ac-|ce- * de, in|
 A4 G4 | ^F4 A4 | G4 G2 G2 | G4"^," G2 E2 |!>(! D8 | D2"^,"!p! D4"^," E2 | (E3!>)! F) F2 z2 | %31
w: e- is|i- gnem,|i- gnem ac-|ce- de, ac-|ce-|de, ve- ni,|ve- * ni,|
!f!!>(! G8!>)! |!mf! G4 z4 |!p!"^mezza voce" G4"^," F4 | E4 G4 |!mp! (F4 G2) G2 | G3 G G2 z2 | %37
w: ve-|ni!|Ve- ni,|ve- ni|San * cte|Spi- ri- tus,|
!mf! F4 G2 z2 |!f! (A2 B2) c2 z2 |!mf!!<(! E4 ^F4!<)! |!f! G6!>(! G2 |!mf! G2!p! E2- E!>)!G FE | %42
w: ve- ni,|ve * ni,|San- cte|Spi- ri-|tus, San * * cte, *|
 E4 D4 |"^rit" (D4 C2) C2 | !fermata!C8 ||[M:3/4] z6 |[M:3/4]!f! D2 DDDD | D2 D2 z ^G | ^G2 G2 G2 | %49
w: San- cte|Spi * ri-|tus||Qui per di- ver- si-|ta- tem lin-|gua- rum cun-|
 ^G2 G2 z2 | z6 |"^Solo"!mp! A2 F2 A2 | G4 G2 | F4 F2 | G3 G G2 | F4 F2 | %56
w: cta- rum||gen- tes in|u- ni-|ta- te|fi- de- i|con- gre-|
!>(! !wedge!F2!>)! !wedge!F2 z2 |!p! E2 E2 E2 |!<(! !>!E4 F2!<)! |!f! F>F F2 z2 | F4 F2 | %61
w: ga- sti,|in u- ni-|ta- te|fi- de- i|con- gre-|
!>(! (F4 E2)!>)! | F4 z2 | z6 |!f!"^Tutti" _E2 EE EE | _E2 E2 z A | A2 A2 A2 | A2 A2 z2 | z6 | %69
w: ga *|sti,||qui per di- ver- si-|ta- tem lin-|gua- rum cun-|cta- rum||
"^Solo" _B2 _G2 B2 | _A4 A2 | _G4 G2 | _A3 A A2 | _G4 G2 | !wedge!_G2 !wedge!G2 z2 | %75
w: gen- tes in|u- ni-|ta- te|fi- de- i|con- gre-|ga- sti,|
!p! F2"^cresc" F2 F2 | F4 _G2 | !>!_G4 G2 |!f! _G>F F2 F2- | (F2 _EF) G_A | %80
w: gen- tes in|u- *|ni- ta-|te fi- de- i|con- * * gre *|
 !wedge!_E2 !wedge!D2 z2 |!f!"^Tutti" G2 G2 G2 | (G2 F_E) DC | (B,2 D2) G2 | G2 F_E DC | %85
w: ga- sti|gen- tes in|u * * ni *|ta * te|fi- de- i con- gre-|
 G2 D2!>(! _EE!>)! | _E2 D2!p! EE | _E6 | !fermata!D6 ||[M:4/4] x8 | x8 |[M:4/4] x8 | x8 | x8 | %94
w: ga- sti, con- gre-|ga- sti, con- gre-||sti.||||||
 x8 | x8 | x8 | x8 | x8 | x8 | x8 | x8 |!f! C4 D2 E2 | F6 F2- | F2 ED E2 FG | A3 G FEDC | %106
w: ||||||||Hal- le- lu-|ja hal-|* * * le- lu *|ja, * * * * *|
 B,4 C2 DE | F6 GF | E4 ^F2 G2 | E2 AG ^FG EF | G6 F2 | E2 G4 ^FE | D6 G2- | G2 AG F4- | %114
w: * hal * *|le- lu- *|ja, * hal-|le * * * * lu *|ja, hal-|le- * lu- *|ja, Hal-||
 F2 ED GAFG | E2 G4 A_B | A8 | G6 G2 | F2 z2 z4 | z4 z2 C2 | A4 dcBA | G4 cBAG | F4 BA GF | %123
w: |||le- lu-|ja,|hal-|le- * * * *||* * * lu *|
 E2 E2 A4- | A4 ^G4 | A2 z2 z4 | E4 ^F2 ^G2 | A6 A2- | AG F2- FE D2- | D2 EF E2 E2 | F4 E4- | %131
w: ja, hal- le|* lu-|ja,|hal- le- lu-|ja, hal||* * * le- lu-|ja, *|
 E2 FG FEAG | FG A4 GF | E2 D^C D2 E2 | A,2 z2 z4 | z8 | z8 | z8 | z8 | z8 | F4 G2 A2 | _B6 B2- | %142
w: |||||||||hal- le- lu-|ja, hal-|
 B2 AG A2 _Bc | d3 c _BAGF | E2 E2 F2 G2 | (G2 F4) F2- | F2 E4 E2- | E2 D4 D2 | C2 z2 z2 G2 | %149
w: * * * le- lu *|ja, * * * * *|* hal- le- lu-|ja * hal-||* * lu-|ja, Hal-|
 A2 z2 z2 A2 | B2 z2 z2 B2 | c2 z2 d2 z2 | G2 z2 z2 A2 | !wedge!A4 !wedge!A4 | G2 z2 z4 | %155
w: le- lu-|ja, hal-|le- lu-|ja, hal-|le- lu-|ja.|
 z2!p! E2 F2 G2 | A2!f! A2 A2 A2 | A2 _A2 G2 A2 | !fermata!G4 z2 G2 | A4 G4 | G2 z2 z4 | z8 | %162
w: Hal- le- lu-|ja, Hal- le- lu-|ja, Hal- le- lu-|ja, hal-|le- lu-|ja.||
 z2!p! C2 D2 E2 | F8 | E2!f! A2 A2 A2 | G8- | G4 c4 | B8 | _B4 A4- | A2 BA G4- | G2 AG ^F4 | %171
w: Hal- le- lu-|ja,|* hal- le- lu-|ja||||||
 F4 E2 G2 | A4 G4 | G4 z2 A2 | A4 A4 | G4 G4 | G4 G4 | G2 G2 G2 G2 | G4 z4 | G4 G3 G | %180
w: * * hal-|le- lu-|ja, hal-|le- lu-|ja, hal-|le- lu-|ja, hal- le- lu-|ja,|Hal- le- lu-|
 !fermata!G8 |] %181
w: ja!|
V:3
!mf! c4"^," B4 | c8- | c2 d2 c2 G2 | c3 c B2 z2 |!f! c4 c2 z2 |!mf! B4 c2 z2 | %6
w: Ve- ni,|ve-|* ni San- cte|Spi- ri- tus,|ve- ni,|ve- ni,|
[M:4/4][K:treble-8]!mp!!<(! (f2 d2 c2) c2!<)! |!mf! c4!>(! B4 |!mp! c2 z2!>)! z4 | %9
w: San * * cte|Spi- ri-|tus,|
 z2 B2- BG"^cresc"AB | c6 c2 | B4 d4 | G4 ^G4 | A4 A2 c2 |!f! d3 d d2 z2 | z2!p! B2 c2 dd | %16
w: re * * ple tu-|o- rum|cor- *||* da fi-|de- li- um|et tu- i a-|
 dc c2 z4 | z2"^cresc" A2 B2 c2 |!f! B4 B3 B | B2 B2 z2 c2 | cB B2 z4 | z2!p! G2 G2 G2 | G4 G2 G2 | %23
w: mo * ris|in e- is|i- gnem ac-|ce- de, ac-|ce- * de,|in e- is|i- gnem ac-|
 G4 G2 z2 | z4 z2!f! A2 | A4 c4 | (B2 d2) e2 f2 | (f2 e2)"^," e2 c2 |!>(! (B4 A2 dc) | %29
w: ce- de,|in|e- is|i- * gnem ac-|ce- * de, ac-|ce * * *|
"^," B2!>)!!p! B4"^," c2 | (^c3 d) d2 z2 |!f!!>(! (d6!>)! f2) |!mf! d4 z4 | %33
w: de, ve- ni,|ve- * ni,|ve *|ni!|
!p!"^mezza voce" c4"^," B4 | c8- | c2!mp! d2 c2 G2 | c3 c B2 z2 |!mf! c4 c2 z2 |!f! (c2 d2) e2 z2 | %39
w: Ve- ni,|ve-|ni San * cte|Spi- ri- tus,|ve- ni,|ve * ni,|
!mf!!<(! c6 c2!<)! |!f! (c4 B2)!>(! f2 |!mf! e2 z2 z4!>)! | z2!p! G4 G2 |"^rit" G6 G2 | %44
w: San- cte|Spi * ri-|tus,|San- cte|Spi- ri-|
 !fermata!G8 ||[M:3/4] z6 |[M:3/4][K:treble-8]!f! B2 BBBB | ^G2 B2 z d | d2 d2 d2 | B2 d2 z2 | z6 | %51
w: tus!||Qui per di- ver- si-|ta- tem lin-|gua- rum cun-|cta- rum||
"^Solo"!mp! c2 A2 c2 | _BABc de | (f2 c2) A2 | _BABc de | f_edc dA | %56
w: gen- tes in|u * * * ni *|ta- * te|fi * * * de- i|con- * * * gre *|
!>(! !wedge!_B2!>)! !wedge!A2 z2 |!p! G2 G2 G2 |!<(! !>!G4 F2!<)! |!f! _B>B B2 B2- | Bdc_B cd | %61
w: ga- sti,|in u- ni-|ta- te|fi- de- i con-|* * * * gre *|
!>(! (c4 _B2)!>)! | A4 z2 | z6 |!f!"^Tutti" c2 cc cc | A2 c2 z _e | _e2 e2 e2 | c2 _e2 z2 | z6 | %69
w: ga *|sti,||qui per di- ver- si-|ta- tem lin-|gua- rum cun-|cta- rum||
"^Solo" _d2 _B2 d2 | _c_Bc_d _ef | (_g2 _d2) _B2 | _c_Bc_d _ef | _g_f_e_d e_B | %74
w: gen- tes in|u- * * * ni- *|ta- * te|fi- * * * de- i|con- * * * gre- *|
 !wedge!_c2 !wedge!_B2 z2 |!p! _A2"^cresc" A2 A2 | _A4 _G2 | (!>!_c2 _B2) A2 |!f! _B>B B2 z2 | %79
w: ga- sti,|gen- tes in|u- *|ni- ta- te|fi- de- i|
 (_A2 G2) c2 | !wedge!G2 !wedge!G2 z2 |!f!"^Tutti" G2 G2 G2 | (G2 F_E) DC | (B,2 D2) G2 | %84
w: con- * gre-|ga- sti|gen- tes in|u * * ni *|ta * te|
 G2 F_E DC | G2 B2!>(! cc!>)! | c2 B2!p! cc | c6 | !fermata!B6 ||[M:4/4]"^Allegro con spirito" z8 | %90
w: fi- de- i con- gre-|ga- sti, con- gre-|ga- sti, con- gre-|ga-|sti.||
 z8 |[M:4/4][K:treble-8] z8 | z8 | z8 | z8 |!f! G4 A2 B2 | c6 c2- | c2 BA B2 cd | e3 d cBAG | %99
w: |||||Hal- le- lu-|ja, hal-|* * * le- lu *|ja * * * * *|
 ^F4 G2 AB | c6 dc | B6 _B2- | B2 A2 =B2 c2 | A2 dc Bc AB | c6 _B2 | A2 c4 BA | G6 G2 | A4 d4- | %108
w: * hal * *|le- lu- *|ja, hal-||* * * le * lu *|ja, hal-|le- * lu- *|ja, hal-|le- *|
 d2 c4 B2 | A4 d4 | G6 AB | c3 B A2 c2- | c2 BA B2 G2 | A6 _A2 | G6 AB | c2 c2 c_B AG | Acdc BcAB | %117
w: |* lu-|ja * *|||||* hal- le * lu- *|ja, * * * * * * *|
 c6 _B2 | A2 c4 f2- | f2 ed c_BAG | F AB^c de f2- | f2 ed cd e2- | e2 dc Bc d2- | d2 cB c2 BA | %124
w: |||* hal- * * * * *||||
 B6 ed | c2 z2 z4 | z8 | A4 B2 c2 | d2 D2- DE F2- | F2 ED C2 A2- | A2 BA ^G4 | G2 A_B AGFE | %132
w: le- lu *|ja,||Hal- le- lu-|ja, * * * *||||
 D2 z2 z4 | z8 | A4 d2 d2 | d2 ^cd efgf | e4 f2 ed | e4 e4 | d8- | d4 c4 | c2 z2 z4 | z2 c2 d2 e2 | %142
w: ||hal- le- lu-|ja * * * * * *||* hal-|le-|* lu-|ja,|hal- le- lu-|
 f6 _e2 | d2 _B2 c2 d2 | e2 c2 d2 e2 | ^c2 d2- ded=c | B2 c2- cdcB | A2 B2 B2 B2 | c2 z2 z2 c2 | %149
w: ja, *|* hal- le- lu-|ja, hal- le- lu-|ja * * * * *||* hal- le- lu-|ja Hal-|
 c2 z2 z2 d2 | d2 z2 z2 e2 | e2 z2 g2 z2 | g2 z2 z2 c2 | !wedge!c4 !wedge!c4 | B2 z2 z4 | %155
w: le- lu-|ja, hal-|le- lu-|ja, hal-|le- lu-|ja.|
 z2!p! c2 d2 e2 | f2!f! e2 d2 ^c2 | d2 d2 d2 d2 | !fermata!d4 z2 c2 | c4 B4 | c2 z2 z4 | %161
w: Hal- le- lu-|ja, Hal- le- lu-|ja, Hal- le- lu-|ja, hal-|le- lu-|ja.|
 z2!p! G2 A2 B2 | c4 B2 ^c2 | d8 | c2!f! e2 d2 d2 | d8- | d2 cB cdec | f8- | f2 ed ^c2 e2- | %169
w: Hal- le- lu-|ja, * *||* hal- le- lu-|ja,||||
 e2 dc B2 d2- | d2 cB A2 Bc | d4 c2 e2 | d6 d2 | e4 z2 c2 | d4 d4 | d4 c4 | c4 B4 | c2 B2 c2 B2 | %178
w: ||* * hal-|le- lu-|ja, hal-|le- lu-|ja, hal-|le- lu-|ja, hal- le- lu-|
 c4 z4 | c4 c3 c | !fermata!c8 |] %181
w: ja,|Hal- le- lu-|ja!|
V:4
!mf! C4"^," G,4 | A,4 E,4 | (F,2 D,2 E,2) B,,2 | C,3 E, G,2 z2 |!f! A,4 G,2 z2 |!mf! F,4 E,2 z2 | %6
w: Ve- ni,|ve- ni|San- * * cte|Spi- ri- tus,|ve- ni,|ve- ni,|
[M:4/4]!mp!!<(! (F,2 G,2 A,2) A,2!<)! |!mf! G,4!>(! G,,4 |"^,"!mp! C,2 E,2-!>)! E,D,E,^F, | %9
w: San * * cte|Spi- ri-|tus, re * * ple tu-|
 G,4 F,2"^cresc" F,2 | E,2 C,B,, A,,2 D,2 | E,4 D,4 | C,4 B,,4 | A,,4 A,,2 A,2 | %14
w: o- rum, tu-|o * * * rum|cor- *||* da fi-|
!f! B,3 B,, B,,2 z2 | z2!p! E,2 E,2 E,E, | A,2 A,,2 z4 | z2"^cresc" D,2 D,2 D,2 |!f! G,4 ^F,3 F, | %19
w: de- li- um|et tu- i a-|mo- ris|in e- is|i- gnem *|
 ^F,E, E,2 z2 ^D,2 | ^D,E, E,2 z4 | z2!p! B,,2 B,,2 B,,2 | (B,,2 C,2) C,2 B,,2 | %23
w: ce- * de, ac-|ce- * de,|in e- is|i- * gnem ac-|
 (B,,2 C,2) C,2 z2 | z4 z2!f! ^C,2 | D,4 ^D,4 | (E,2 D,2) C,2 B,,2 | C,4"^," C,2 C,2 |!>(! D,8 | %29
w: ce- * de,|in|e- is|i- * gnem ac-|ce- de, ac-|ce-|
 G,,2 z2!p! G,2"^," G,2!>)! | G,4 G,2 z2 |!f!!>(! G,8!>)! |!mf! G,,4 z4 | %33
w: de, ve- ni,|ve- ni,|ve-|ni!|
!p!"^mezza voce" C4"^," G,4 | A,4 E,4 |!mp! (F,2 D,2 E,2) B,,2 | C,3 E, G,2 z2 |!mf! A,4 G,2 z2 | %38
w: Ve- ni,|ve- ni|San- * * cte|Spi- ri- tus,|ve- ni,|
!f! F,4 E,2 z2 |!mf!!<(! A,6 A,2!<)! |!f! G,4!>(! G,,4 |!mf! C,2 z2 z4!>)! | %42
w: ve- ni,|San- cte|Spi- ri-|tus,|
 z2!p! C,2- C,B,, A,,G,, |"^rit" C,6 C,2 | !fermata!C,8 ||[M:3/4]!f! E,2 E,E,E,E, | %46
w: San * * cte *|Spi- ri-|tus!|Qui per di- ver- si-|
[M:3/4] F,2 E,2 z E, | E,2 E,2 E,2 | F,2 E,2 z2 | z6 |"^Solo"!mp! F,2 F,2 F,2 | F,4 F,2 | F,6- | %53
w: ta- tem lin-|gua- rum cun-|cta- rum||gen- tes in|u- ni-|ta-|
 F,4 F,2 | F,4 F,F, | F,4 F,2 |!>(! !wedge!_B,,2!>)! !wedge!F,2 z2 |!p! C,2 C,2 C,2 | %58
w: * te|fi- de- i|con- gre-|ga- sti,|in u- ni-|
!<(! !>!^C,4 D,2!<)! |!f! _B,,>B,, B,,2 z2 | _B,4 _B,,2 |!>(! C,6 | F,,4!>)! z2 | %63
w: ta- te|fi- de- i|con- gre-|ga-|sti,|
!f!"^Tutti" F,2 F,F, F,F, | _G,2 F,2 z F, | F,2 F,2 F,2 | _G,2 F,2 z2 | z6 |"^Solo" _G,2 G,2 G,2 | %69
w: qui per di- ver- si-|ta- tem lin-|gua- rum cun-|cta- rum||gen- tes in|
 _G,4 G,2 | _G,6- | G,4 _G,2 | _G,4 G,G, | _G,4 G,2 | !wedge!_C,2 !wedge!_G,2 z2 | %75
w: u- ni-|ta-|* te|fi- de- i|con- gre-|ga- sti,|
!p! _D,2"^cresc" D,2 D,2 | (_D,2 =D,2) _E,2 | !>!_C,4 C,2 |!f! _B,,>B,, B,,2 z2 | %79
w: gen- tes in|u- * ni-|ta- te|fi- de- i|
 (B,,2 C,D,) _E,F, | !wedge!G,2 !wedge!G,,2 z2 |!f!"^Tutti" G,2 G,2 G,2 | (G,2 F,_E,) D,C, | %83
w: con- * * gre *|ga- sti|gen- tes in|u * * ni *|
 (B,,2 D,2) G,2 | G,2 F,_E, D,C, |!>(! G,6- | G,6!>)! |!p! G,6 | !fermata!G,,6 || %89
w: ta * te|fi- de- i con- gre-|ga-|||sti.|
[M:4/4]!f! C,4 D,2 E,2 | F,6 F,2- |[M:4/4] F,2 E,D, E,2 F,G, | A,3 G, F,E,D,C, | B,,4 C,2 D,E, | %94
w: Hal- le- lu-|ja, hal-|* * * le- lu *|ja, * * * * *|* Hal- * *|
 F,6 G,F, | E,4 z2 D,2 | E,2 A,G, F,G, E,F, | G,6 B,,2 | C,2 A,,B,, C,2 ^C,2 | D,2 C,2 B,,2 G,2- | %100
w: le- lu *|ja, Hal-|le * * * * lu *|ja, hal-|le * * * lu-|ja, * * *|
 G,2 A,G, F,4- | F,2 D,E, F,D,G,F, | E,2 F,E, D,2 C,2 | D,4 G,,4 | C,6 D,E, | F,3 E, D,2 F,2- | %106
w: ||* * * * hal-|le- lu-|ja, * *||
 F,2 E,D, E,2 C,2- | C,2 D,C, B,,2 A,,B,, | C,2 z2 z4 | z8 | z8 | z8 | z8 | z8 | z8 | C,4 D,2 E,2 | %116
w: * * * * hal-|* * * le- lu *|ja,|||||||Hal- le- lu-|
 F,6 F,2- | F,2 E,D, E,2 F,G, | A,3 G, F,E,D,C, | B,,4 C,2 D,E, | F,3 E, F,E, D,C, | %121
w: ja, hal-|* * * le- lu *|ja * * * * *|* hal * *|le- * * * lu *|
 B,,D,G,F, E,D,C,B,, | A,,C,F,E, D,C,B,,A,, | ^G,,4 A,,2 B,,C, | D,2 C,D, E,D, C,B,, | A,,2 z2 z4 | %126
w: ja, * * * * * * *||* hal * *|le * * * * lu *|ja,|
 z8 | z8 | z8 | z8 | z8 | z8 | D,4 E,2 F,2 | G,6 G,2- | G,2 F,E, F,2 G,A, | _B,3 A, G,F,E,D, | %136
w: ||||||Hal- le- lu-|ja, Hal-|* * * le- lu *|ja, * * * * *|
 ^C,4 D,2 E,F, | G,4- G,2 A,G, | ^F,4- F,2 E,F, | G,4 E,4 | F,2 z2 z4 | z8 | z2 F,2 G,2 A,2 | %143
w: * hal- * *|le * * *||* lu-|ja,||Hal- le- lu-|
 _B,2 G,2 A,2 B,2 | C2 z2 z4 | z8 | z8 | z4 z2 G,2 | A,E,A,G, F,E, D,C, | F,2 F,2 ^F,2 z2 | %150
w: ja, hal- le- lu-|ja,|||Hal-|le * * * * * lu- *|ja, hal- le|
 z2 G,2 ^G,2 G,2 | A,2 z2 B,2 z2 | CG,CB, A,E,A,G, | F,E,D,E, F,E,F,^F, | G,2 z2 z4 | z8 | %156
w: lu- ja, hal-|le- lu-|ja, * * * * * * *||||
 z2!f! G,2 F,2 E,2 | D,2 C2 B,2 C2 | !fermata!B,4 z2 C2 | F,4 G,4 | C,2!p! C,2 D,2 E,2 | F,6 E,D, | %162
w: Hal- le- lu-|ja, Hal- le- lu-|ja, hal-|le- lu-|ja, hal- le- lu-|ja, * *|
 E,2 A,G, F,2 E,2 | D,2 C,B,, A,,2 ^G,,2 | A,,2!f! A,G, ^F,D,E,F, | G,8- | G,8 | G,8 | G,8 | G,8 | %170
w: ||* hal- * le * lu *|ja|||||
 G,8 | G,2 ^F,G, A,2 E,2 | F,2 E,F, G,2 ^F,G, | CG,CB, A,E,A,G, | F,D,F,E, D,A,,D,C, | %175
w: |* * * * hal-|le- * * * lu *|ja * * * * * * *||
 B,,G,,A,,B,, C,D, E,F, | G,4 G,,4 | C,2 G,2 C2 G,2 | C4 z4 | C,4 C,3 C, | !fermata!C,8 |] %181
w: * * * * * * hal *|le- lu-|ja, hal- le- lu-|ja,|Hal- le- lu-|ja!|

